X:2243 
T:The Curragh of Kildare
T:My love is like the sun 
C:Mrs Lawson 
C:Traditional
O:Isle of Man
Z:Clague collection
B:Kiaull Vannin #243
N:See also KV29 
L:1/4
M:4/4  
Q:180 
K:D 
E|FE FA|B2 ed|B3/2A/ FD|E3 e|B2 cd|e2 gf|e3 B| 
de fd|e2 dc|BA FD|E2 GA|B/d3/2 =cB|A/G3/2 ED|E3|| 

